!!!COM:	Martini, Johannes
!!!CDT:	~1440///-~1497//
!!!OTL:	Laudate nomen domini
!!!AGN:	Motet
!!!SCT:	Mar2064
!!!SCA:	Mar2064
!!!voices:	2
**kern	**kern
*staff2	*staff1
*Ivox	*Ivox
*I"Tenor	*I"Superius
*I'T	*I'S
*>[A,B,C,D,E,F,G,H,I,J,K,L,M,N,O,P,Q,R,S,T,U,V,W]	*>[A,B,C,D,E,F,G,H,I,J,K,L,M,N,O,P,Q,R,S,T,U,V,W]
*>A	*>A
*clefGv2	*clefG2
*k[]	*k[]
*M2/1	*M2/1
*met(C)	*met(C)
=1-	=1-
!!section: Laudate, servi
!!!OMD: Laudate, servi
!!LO:TX:Z=8:t=Choir 1
2c\	2cc\
2c\	2cc\
1c	1cc
=2	=2
1c	2a/
.	2cc\
1d	2b\
.	[2a/
=3	=3
2c\	2a/]
2B\	1g
1A	.
.	2f#i/
=4	=4
0Gl	0gl
=5||	=5||
*>B	*>B
!!section: Qui statis
!!!OMD: Qui statis
!!LO:TX:Z=8:t=Choir 2
1c	1cc
2e\	2cc\
2e\	2cc\
=6	=6
1e	2cc\
.	2cc\
2e\	2cc\
2d\	[2dd\
=7	=7
2f\	2dd\]
2e\	1cc
1d	.
.	2b\
=8	=8
1c	1cc
1r	1r
=9	=9
1e	1cc
2e\	2cc\
2e\	2cc\
=10	=10
1e	1cc
1c	2cc\
.	2a/
=11	=11
2c\	2cc\
1d	2.b\
.	4a/
2B\	[2g/
=12	=12
1A	2g/]
.	2f#i/
1Gl	1gl
=13||	=13||
*>C	*>C
!!section: Laudate Dominum
!!!OMD: Laudate Dominum
!!LO:TX:Z=8:t=Choir 1
1c	1cc
2e\	2cc\
2e\	2cc\
=14	=14
2e\	2cc\
2e\	2cc\
1e	1cc
=15	=15
1d	2b\
.	2b\
2e\	2cc\
2d\	[2dd\
=16	=16
2f\	2dd\]
2e\	1cc
1d	.
.	2b\
=17	=17
1c	1cc
1r	1r
=18	=18
2e\	2cc\
2e\	2cc\
2e\	2cc\
2e\	2cc\
=19	=19
2e\	2cc\
2e\	2cc\
1e	1cc
=20	=20
1c	2cc\
.	2a/
2c\	2cc\
2d\	2b\
=21	=21
2B\	4b\
.	4a/
2c\	1g
1A	.
.	2f#i/
=22	=22
0Gl	0gl
=23||	=23||
*>D	*>D
!!section: Quoniam Jacob
!!!OMD: Quoniam Jacob
!!LO:TX:Z=8:t=Choir 2
2c\	2cc\
2c\	2cc\
2e\	2cc\
2e\	2cc\
=24	=24
1e	1cc
1e	2cc\
.	2cc\
=25	=25
2e\	2cc\
2d\	1dd
2f\	.
2e\	2cc\
=26	=26
2c\	2a/
2d\	2b\
1c	1cc
=27	=27
1r	1r
2e\	2cc\
2e\	2cc\
=28	=28
1e	1cc
1e	1cc
=29	=29
2e\	2cc\
2e\	2cc\
1c	2a/
.	2cc\
=30	=30
1d	2b\
.	2.a/
2c\	.
.	4g/
2B\	[2g/
=31	=31
1A	2g/]
.	2f#i/
1Gl	1gl
=32||	=32||
*>E	*>E
!!LO:TX:Z=8:t=Choir 1
!!section: Quia ego cognovi
!!!OMD: Quia ego cognovi
2c\	2cc\
2c\	2cc\
2e\	2cc\
2e\	2cc\
=33	=33
2e\	2cc\
2e\	2cc\
1e	1cc
=34	=34
1e	2cc\
.	2cc\
2e\	2cc\
2d\	[2dd\
=35	=35
2f\	2dd\]
2e\	1cc
1d	.
.	2b\
=36	=36
1c	1cc
1r	1r
=37	=37
1e	1cc
2e\	2cc\
2e\	2cc\
=38	=38
1e	1cc
2c\	2cc\
2c\	2a/
=39	=39
2c\	2cc\
1d	2.b\
.	4a/
2B\	[2g/
=40	=40
1A	2g/]
.	2f#i/
1Gl	1gl
=41||	=41||
*>F	*>F
!!section: Omnia quecumque
!!!OMD: Omnia quecumque
!!LO:TX:Z=8:t=Choir 2
2c\	2cc\
2c\	2cc\
1e	1cc
=42	=42
2e\	2cc\
2e\	2cc\
2e\	2cc\
2e\	2cc\
=43	=43
2e\	2cc\
2e\	2cc\
2e\	2cc\
2e\	2cc\
=44	=44
1e	1cc
1d	1b
=45	=45
1c	1a
2c\	2a/
2d\	2b\
=46	=46
2c\	2a/
1f	1dd
2e\	[2cc\
=47	=47
1d	2cc\]
.	2b\
1c	1cc
=48	=48
1r	1r
2e\	2cc\
2e\	2cc\
=49	=49
1e	1cc
1e	1cc
=50	=50
2e\	2cc\
2e\	2cc\
1c	2cc\
.	2a/
=51	=51
2c\	2cc\
1d	2.b\
.	4a/
2B\	[2g/
=52	=52
1A	2g/]
.	2f#i/
1Gl	1gl
=53||	=53||
*>G	*>G
!!section: Educens nubes
!!!OMD: Educens nubes
!!LO:TX:Z=8:t=Choir 1
1c	1cc
2e\	2cc\
2e\	2cc\
=54	=54
1e	1cc
1e	1cc
=55	=55
2e\	2cc\
2c\	2cc\
2d\	2b\
2e\	2cc\
=56	=56
1f	1dd
1c	1cc
=57	=57
1r	1r
2e\	2cc\
2e\	2cc\
=58	=58
1e	1cc
1e	1cc
=59	=59
1c	2a/
.	2cc\
1d	2b\
.	[2a/
=60	=60
2c\	2a/]
2B\	1g
1A	.
.	2f#i/
=61	=61
0Gl	0gl
=62||	=62||
*>H	*>H
!!section: Qui producit
!!!OMD: Qui producit
!!LO:TX:Z=8:t=Choir 2
1c	1cc
2e\	2cc\
2e\	2cc\
=63	=63
2e\	2cc\
2e\	2cc\
1e	1cc
=64	=64
2e\	2cc\
2c\	2cc\
2d\	2b\
2e\	2cc\
=65	=65
1f	1dd
1c	1cc
=66	=66
1r	1r
2e\	2cc\
2e\	2cc\
=67	=67
2e\	2cc\
2e\	2cc\
2e\	2cc\
2e\	2cc\
=68	=68
2e\	2cc\
2e\	2cc\
1e	1cc
=69	=69
1e	1cc
1d	1b
=70	=70
1c	1a
2r	2r
2e\	2cc\
=71	=71
2e\	2cc\
2e\	2cc\
1e	1cc
=72	=72
1c	2a/
.	2cc\
1d	2b\
.	[2a/
=73	=73
2c\	2a/]
2B\	1g
1A	.
.	2f#i/
=74	=74
0Gl	0gl
=75||	=75||
*>I	*>I
!!section: Et misit signa
!!!OMD: Et misit signa
!!LO:TX:Z=8:t=Choir 1
2e\	2cc\
2e\	2cc\
2e\	2cc\
2e\	2cc\
=76	=76
1e	1cc
2d\	2b\
2c\	2a/
=77	=77
2d\	2b\
2d\	2b\
1c	1cc
=78	=78
2r	2r
2e\	2cc\
2e\	2cc\
2e\	2cc\
=79	=79
2e\	2cc\
2e\	2cc\
1e	1cc
=80	=80
1e	1cc
1d	1dd
=81	=81
1c	1cc
1r	1r
=82	=82
2e\	2cc\
2e\	2cc\
2e\	2cc\
2e\	2cc\
=83	=83
1e	1cc
2d\	2b\
2c\	2a/
=84	=84
1d	1b
1c	1cc
=85	=85
1d	2b\
.	1a
2c\	.
2B\	[2g/
=86	=86
1A	2g/]
.	2f#i/
1Gl	1gl
=87||	=87||
*>J	*>J
!!section: Qui percussit
!!!OMD: Qui percussit
!!LO:TX:Z=8:t=Choir 2
2e\	2cc\
2e\	2cc\
1e	1cc
=88	=88
1e	1cc
2d\	2b\
2e\	2cc\
=89	=89
1f	1dd
1c	1cc
=90	=90
1r	1r
1e	1cc
=91	=91
2e\	2cc\
2e\	2cc\
1c	2a/
.	2cc\
=92	=92
1d	2b\
.	2.a/
2c\	.
.	4g/
2B\	[2g/
=93	=93
1A	2g/]
.	2f#i/
1Gl	1gl
=94||	=94||
*>K	*>K
!!section: Seon, regnem
!!!OMD: Seon, regnem
!!LO:TX:Z=8:t=Choir 1
2e\	2cc\
2e\	2cc\
1e	1cc
=95	=95
1c	1cc
1e	1cc
=96	=96
2d\	2b\
2c\	2a/
1d	1b
=97	=97
2c\	2a/
2d\	2b\
2e\	2cc\
[2f\	[2dd\
=98	=98
2f\]	2dd\]
2e\	1cc
1d	.
.	2b\
=99	=99
1c	1cc
1r	1r
=100	=100
1e	1cc
2e\	2cc\
2e\	2cc\
=101	=101
1c	1a
1c	1cc
=102	=102
1d	2b\
.	1a
2c\	.
2B\	[2g/
=103	=103
1A	2g/]
.	2f#i/
1Gl	1gl
=104||	=104||
*>L	*>L
!!section: Et dedit terram
!!!OMD: Et dedit terram
!!LO:TX:Z=8:t=Choir 2
1c	1cc
1e	1cc
=105	=105
1e	1cc
2e\	2cc\
2e\	2cc\
=106	=106
2e\	2cc\
2e\	2cc\
1e	1cc
=107	=107
2d\	2b\
2c\	2a/
2B\	2g/
2c\	[2cc\
=108	=108
1d	2cc\]
.	2b\
1c	1cc
=109	=109
1r	1r
2e\	2cc\
2e\	2cc\
=110	=110
2e\	2cc\
2e\	2cc\
1e	1cc
=111	=111
2e\	2cc\
2e\	2cc\
1e	1cc
=112	=112
1c	2a/
.	2cc\
1d	2b\
.	[2a/
=113	=113
2c\	2a/]
2B\	1g
1A	.
.	2f#i/
=114	=114
0Gl	0gl
=115||	=115||
*>M	*>M
!!section: Domine, nomen
!!!OMD: Domine, nomen
!!LO:TX:Z=8:t=Choir 1
2e\	2cc\
2e\	2cc\
1e	1cc
=116	=116
2d\	2b\
2c\	2a/
1d	1b
=117	=117
2e\	2cc\
1f	1dd
2e\	[2cc\
=118	=118
1d	2cc\]
.	2b\
1c	1cc
=119	=119
1r	1r
2e\	2cc\
2e\	2cc\
=120	=120
1e	1cc
1e	1cc
=121	=121
2e\	2cc\
2e\	2cc\
2d\	2b\
2c\	2a/
=122	=122
1d	1b
1c	1cc
=123	=123
2e\	2cc\
2e\	2cc\
2e\	2cc\
2e\	2cc\
=124	=124
2e\	2cc\
2e\	2b\
1e	1cc
=125	=125
2c\	2a/
2c\	2cc\
1d	2b\
.	[2a/
=126	=126
2c\	2a/]
2B\	1g
1A	.
.	2f#i/
=127	=127
0Gl	0gl
=128||	=128||
*>N	*>N
!!section: Qui judicabit
!!!OMD: Qui judicabit
!!LO:TX:Z=8:t=Choir 2
1e	1cc
1e	1cc
=129	=129
2e\	2cc\
2e\	2cc\
2e\	2cc\
2e\	2cc\
=130	=130
2e\	2cc\
2e\	2cc\
1e	1cc
=131	=131
2d\	2b\
2c\	2a/
2B\	2g/
2c\	[2cc\
=132	=132
1d	2cc\]
.	2b\
1c	1cc
=133	=133
1r	1r
1e	1cc
=134	=134
2e\	2cc\
2e\	2cc\
2e\	2cc\
2e\	2cc\
=135	=135
1e	1cc
1d	2b\
.	[2a/
=136	=136
2c\	2a/]
2B\	1g
1A	.
.	2f#i/
=137	=137
0Gl	0gl
=138||	=138||
*>O	*>O
!!section: Simulacra gentium
!!!OMD: Simulacra gentium
!!LO:TX:Z=8:t=Choir 1
2e\	2cc\
2e\	2cc\
2e\	2cc\
2e\	2cc\
=139	=139
2e\	2cc\
2e\	2cc\
1e	1cc
=140	=140
1d	1b
2e\	2cc\
[2f\	[2dd\
=141	=141
2f\]	2dd\]
2e\	1cc
1d	.
.	2b\
=142	=142
1c	1cc
1r	1r
=143	=143
2e\	2cc\
2e\	2cc\
1e	1cc
=144	=144
1c	1a
1d	2b\
.	[2a/
=145	=145
2c\	2a/]
2B\	1g
1A	.
.	2f#i/
=146	=146
0Gl	0gl
=147||	=147||
*>P	*>P
!!section: Os habent
!!!OMD: Os habent
!!LO:TX:Z=8:t=Choir 2
2e\	2cc\
2e\	2cc\
1e	1cc
=148	=148
2d\	2b\
2c\	2a/
2B\	2g/
2c\	[2cc\
=149	=149
1d	2cc\]
.	2b\
1c	1cc
=150	=150
1r	1r
2e\	2cc\
2e\	2cc\
=151	=151
2e\	2cc\
2e\	2cc\
1e	1cc
=152	=152
1d	2b\
.	1a
2c\	.
2B\	[2g/
=153	=153
1A	2g/]
.	2f#i/
1Gl	1gl
=154||	=154||
*>Q	*>Q
!!section: Aures habent
!!!OMD: Aures habent
!!LO:TX:Z=8:t=Choir 1
2e\	2cc\
2e\	2cc\
1e	1cc
=155	=155
1e	1cc
2e\	2cc\
2f\	[2dd\
=156	=156
1e	2dd\]
.	1cc
1d	.
.	2b\
=157	=157
1c	1cc
1r	1r
=158	=158
2e\	2cc\
2e\	2cc\
1e	1cc
=159	=159
2d\	2b\
2c\	2a/
2d\	2b\
2d\	2b\
=160	=160
1e	1cc
1c	2a/
.	2cc\
=161	=161
1d	2b\
.	1a
2c\	.
2B\	[2g/
=162	=162
1A	2g/]
.	2f#i/
1Gl	1gl
=163||	=163||
*>R	*>R
!!section: Similes illis
!!!OMD: Similes illis
!!LO:TX:Z=8:t=Choir 2
2e\	2cc\
2e\	2cc\
2e\	2cc\
2e\	2cc\
=164	=164
2e\	2cc\
2e\	2cc\
1e	1cc
=165	=165
2e\	2cc\
2c\	2cc\
2d\	2b\
2e\	2cc\
=166	=166
1f	1dd
1c	1cc
=167	=167
1r	1r
2e\	2cc\
2e\	2cc\
=168	=168
1e	1cc
2c\	2a/
2c\	2cc\
=169	=169
1d	2b\
.	1a
2c\	.
2B\	[2g/
=170	=170
1A	2g/]
.	2f#i/
1Gl	1gl
=171||	=171||
*>S	*>S
!!LO:TX:Z=8:t=Choir 1
!!section: Domus Israel
!!!OMD: Domus Israel
2e\	2cc\
2e\	2cc\
2e\	2cc\
2e\	2cc\
=172	=172
1e	1cc
1d	1b
=173	=173
2c\	1a
2A/	.
2B\	2g/
2c\	2a/
=174	=174
2d\	2b\
2c\	1cc
1d	.
.	2b\
=175	=175
1c	1cc
1r	1r
=176	=176
2e\	2cc\
2e\	2cc\
1e	1cc
=177	=177
1e	1cc
1e	1cc
=178	=178
2e\	2cc\
2e\	2cc\
1c	2a/
.	2cc\
=179	=179
1d	2b\
.	1a
2c\	.
2B\	[2g/
=180	=180
1A	2g/]
.	2f#i/
1Gl	1gl
=181||	=181||
*>T	*>T
!!LO:TX:Z=8:t=Choir 2
!!section: Domus Levi
!!!OMD: Domus Levi
2e\	2cc\
2e\	2cc\
1e	1cc
=182	=182
1e	1cc
2e\	2cc\
2e\	2cc\
=183	=183
2d\	2b\
2c\	2a/
2B\	2g/
2c\	[2cc\
=184	=184
1d	2cc\]
.	2b\
1c	1cc
=185	=185
1r	1r
2e\	2cc\
2e\	2cc\
=186	=186
2e\	2cc\
2e\	2cc\
2e\	2cc\
2e\	2cc\
=187	=187
1e	1cc
1e	1cc
=188	=188
2c\	2a/
2c\	2cc\
1d	2b\
.	[2a/
=189	=189
2c\	2a/]
2B\	1g
1A	.
.	2f#i/
=190	=190
0Gl	0gl
=191||	=191||
*>U	*>U
!!LO:TX:Z=8:t=Choir 1
!!section: Benedictus Dominus
!!!OMD: Benedictus Dominus
2e\	2cc\
2e\	2cc\
1e	1cc
=192	=192
1e	1cc
2c\	2cc\
2d\	2b\
=193	=193
2e\	2cc\
1f	1dd
2e\	[2cc\
=194	=194
1d	2cc\]
.	2b\
1c	1cc
=195	=195
1r	1r
1e	1cc
=196	=196
2e\	2cc\
2e\	2cc\
1e	1cc
=197	=197
1d	2b\
.	1a
2c\	.
2B\	[2g/
=198	=198
1A	2g/]
.	2f#i/
1Gl	1gl
=199||	=199||
*>V	*>V
!!LO:TX:Z=8:t=Choir 2
!!section: Gloria Patri
!!!OMD: Gloria Patri
2e\	2cc\
2e\	2cc\
1e	1cc
=200	=200
2d\	2b\
2c\	2a/
2B\	2g/
2c\	[2cc\
=201	=201
1d	2cc\]
.	2b\
1c	1cc
=202	=202
1r	1r
1e	1cc
=203	=203
2e\	2cc\
2e\	2cc\
1e	1cc
=204	=204
1d	2b\
.	1a
2c\	.
2B\	[2g/
=205	=205
1A	2g/]
.	2f#i/
1Gl	1gl
=206||	=206||
*>W	*>W
!!section: Sicut erat
!!!OMD: Sicut erat
!!LO:TX:Z=8:t=Choir 1
2e\	2cc\
2e\	2cc\
2e\	2cc\
2e\	2cc\
=207	=207
2e\	2cc\
2e\	2cc\
2e\	2cc\
2e\	2cc\
=208	=208
1e	1cc
2e\	2cc\
2d\	[2dd\
=209	=209
2f\	2dd\]
2e\	1cc
1d	.
.	2b\
=210	=210
1c	1cc
1r	1r
=211	=211
2e\	2cc\
2e\	2cc\
2e\	2cc\
2e\	2cc\
=212	=212
1e	1cc
2c\	2cc\
2c\	2a/
=213	=213
2c\	2cc\
2d\	2b\
1c	1a
=214	=214
0Gl	0gl
==	==
*-	*-
!!!RDF**kern: l=long note in original notation
!!!RDF**kern: i=editorial accidental
!!!ENC:	Chris Gage 02-20-2014
!!!END:	2014/10/09/
!!!EED:	Jesse Rodin
!!!EEV:	2014/10/18/
!!!ONB:	Translated from MusicXML and edited on 2014/10/18/ by Craig Sapp
!!muse2ps: C^@{COM}^i2I150v85,150Q16
